img/svg/file.svg

<svg xmlns="http://www.w3.org/2000/svg" preserveAspectRatio="xMidYMid" width="18" height="24" viewBox="0 0 18 24"><defs><style>.cls-2 { fill: #bababa; stroke: #b3b3b3; stroke-linejoin: round; stroke-width: 1px; fill-opacity: 0; }</style></defs><path d="M15.712 23.5h-13.416c-.984 0-1.789-.767-1.789-1.704v-19.592c0-.938.805-1.704 1.789-1.704h8.944v3.111c0 .937.805 1.704 1.789 1.704h4.472v16.480999999999998c0 .937-.805 1.704-1.789 1.704zm-3.578-19.889v-3.111l5.367 3.963h-4.472c-.447 0-.895-.341-.895-.852z" id="path-1" class="cls-2" fill-rule="evenodd"/></svg>

<svg xmlns="http://www.w3.org/2000/svg" xmlns:xlink="http://www.w3.org/1999/xlink" preserveAspectRatio="xMidYMid" width="18" height="24" viewBox="0 0 18 24">
  <defs>
    <style>

      .cls-2 {
        fill: #bababa;
        stroke: #b3b3b3;
        stroke-linejoin: round;
        stroke-width: 1px;
        fill-opacity: 0;
      }
    </style>
  </defs>
  <path d="M15.712,23.500 C15.712,23.500 2.296,23.500 2.296,23.500 C1.312,23.500 0.507,22.733 0.507,21.796 C0.507,21.796 0.507,2.204 0.507,2.204 C0.507,1.266 1.312,0.500 2.296,0.500 C2.296,0.500 11.240,0.500 11.240,0.500 C11.240,0.500 11.240,3.611 11.240,3.611 C11.240,4.548 12.045,5.315 13.029,5.315 C13.029,5.315 17.501,5.315 17.501,5.315 C17.501,5.315 17.501,21.092 17.501,21.092 C17.501,21.092 17.501,21.796 17.501,21.796 C17.501,22.733 16.696,23.500 15.712,23.500 ZM12.134,3.611 C12.134,3.611 12.134,0.500 12.134,0.500 C12.134,0.500 17.501,4.463 17.501,4.463 C17.501,4.463 13.029,4.463 13.029,4.463 C12.582,4.463 12.134,4.122 12.134,3.611 Z" id="path-1" class="cls-2" fill-rule="evenodd"/>
</svg>
